packages/bezier-icons/icons/hashtag.svg

<svg width="24" height="24" viewBox="0 0 24 24" fill="none" xmlns="http://www.w3.org/2000/svg">
<path fill-rule="evenodd" clip-rule="evenodd" d="M10.6789 5.51612C11.2223 5.61492 11.5827 6.1355 11.4839 6.67888L11.2437 8H14.2109L14.5161 6.3211C14.6149 5.77773 15.1355 5.41732 15.6789 5.51612C16.2223 5.61492 16.5827 6.1355 16.4839 6.67888L16.2437 8H17.5C18.0523 8 18.5 8.44772 18.5 9C18.5 9.55228 18.0523 10 17.5 10H15.88L15.1527 14H16.5C17.0523 14 17.5 14.4477 17.5 15C17.5 15.5523 17.0523 16 16.5 16H14.7891L14.4839 17.6789C14.3851 18.2223 13.8645 18.5827 13.3211 18.4839C12.7777 18.3851 12.4173 17.8645 12.5161 17.3211L12.7563 16H9.78911L9.48386 17.6789C9.38506 18.2223 8.86448 18.5827 8.3211 18.4839C7.77773 18.3851 7.41732 17.8645 7.51612 17.3211L7.75632 16H6.5C5.94772 16 5.5 15.5523 5.5 15C5.5 14.4477 5.94772 14 6.5 14H8.11996L8.84723 10H7.5C6.94772 10 6.5 9.55228 6.5 9C6.5 8.44772 6.94772 8 7.5 8H9.21087L9.51612 6.3211C9.61492 5.77773 10.1355 5.41732 10.6789 5.51612ZM13.12 14L13.8472 10H10.88L10.1527 14H13.12Z" fill="#313234"/>
</svg>

<svg xmlns="http://www.w3.org/2000/svg" width="24" height="24" fill="none" viewBox="0 0 24 24"><path fill="#313234" fill-rule="evenodd" d="M10.679 5.516a1 1 0 0 1 .805 1.163L11.244 8h2.967l.305-1.679a1 1 0 0 1 1.968.358L16.244 8H17.5a1 1 0 1 1 0 2h-1.62l-.727 4H16.5a1 1 0 1 1 0 2h-1.71l-.306 1.679a1 1 0 1 1-1.968-.358l.24-1.321H9.79l-.305 1.679a1 1 0 1 1-1.968-.358L7.756 16H6.5a1 1 0 1 1 0-2h1.62l.727-4H7.5a1 1 0 0 1 0-2h1.71l.306-1.679a1 1 0 0 1 1.163-.805M13.12 14l.727-4H10.88l-.727 4z" clip-rule="evenodd"/></svg>
